X: 4
T:Nutting Girl, Ducklington
M:4/4
L:1/8
A:Ducklington
P:A(AB)2CB
K:G
P:A
D2|G2B2 B2d2|d2c2 cBcA|G2Bc  d2g2|d4   d2B2|
cdec A2c2|BcdB G2AB|c<dcA G2F2|G6       ||
P:B
d2|g2g2 gefg|f2d2 d2d2|g2g2  gefg|g6   d2  |
g2g2 gefg|f2d2 d2B2|A2B2  c2d2|e2fe dcBA|
G2B2 B2d2|d2c2 cBcA|G2Bc  d2g2|d4   d2B2|
cdec A2c2|BcdB G2AB|c<dcA G2F2|G6       ||
P:C
D4|G4   B4  |B4   d4  |d4   c4  |\
M:3/4 L:1/8
c4   cA  |
M:4/4G2Bc d2g2|
M:6/4
L:1/8
d4 d4 B4 |\
M:4/4
c2d2 e2c2| A4 c4|\
B2c2 d2B2|
M:3/4
L:1/8
G4 AB  |\
M:4/4
c<dcA G2F2|\
G4 G2    ||

